X:55
T:Reagan's Slide
B:Terry "Cuz" Teahan "Sliabh Luachra on Parade" 1980
Z:Patrick Cavanagh
M:12/8
L:1/8
R:Slide
K:D
| e3 efe d2f e2d | c2B cBA a3 a2f | 
e3 efe d2f e2d | cBA BcB A3 A3 :| 
| f2b b2a f2e d2e | f2b b2a f3 e3 | 
f2b b2b bgb d'2b | a2f f2a g3 f3 :|| 

